X:118
T:Lovers Leap. ThoH.118, The
Q:1/2=90
M:3/2
L:1/8
B:Thompson's Compleat Collection of 120 Favourite Hornpipes.
Z:Village Music Project, Simon Wilson 2016
O:England.
K:D
D2d2-d2A2F2D2|B,2E2-E2B,2^C4|D2d2-d2A2F4|D2F2-F2A2F2ED|D2d2-d2F2FGAF|E2(cd) (edcB) (cdec)|
D2d2(edcB) (AGAF)|(DEFG) (FGAF) (EFGE)|D2d2(edcB) (AGFA)|D2(cd) (edcB) (cded)|
(fedc) (dcBA) (FGAF)|D2d2(edcB) (cdec)|(fedc) (dcBA) (FGAF)|D2(cd) (edcB) (cdec)|
d2f2D2G2F2A2|D2f2D2f2cdec|d2f2D2G2F2A2|e2(fe) (fdfd) (fedc)|d2(ed) (edcB) (AGFA)|
(DEFG) (FGAF) (EFGE)|(DEFG) (AFGA) (BAGF)|(EDEF) (EDCB,) (CDEC)|D4A,4D4|
(DEFG)A2D2C2E2|A,2D2C2E2(DEFD)|(CDEF) (EDCB,) (CDEC)|(A,DFA,) (B,DEC) (DEFG)|(AGFE) (DEFD) (CDEC)|
D2(FD)E2(GE) (FGAF)|(Edcd) (edcB) (cdec)|(defe)d2D2F2A2|D2F2-F2A2{G}F2(ED)|]

